X: 33601
T: Rakes Of Sollohod, The
R: slip jig
M: 9/8
K: Gmajor
|:B2 d d2 B c3|B2 d d2 B cBA|B2 d d2 B c2 A|G2 F G2 A B3:|
|:c2 A A2 G F2 D|D2 G G2 F G2A/B/|c2 A A2 G F2 D|1 D2 G G2 F GAB:|2 D2 G G2 F G3||

